icons/subscript-2.svg

<svg xmlns="http://www.w3.org/2000/svg" width="24" height="24" fill="none"><g clip-path="url(#a)"><g><path fill="#121212" d="M11 6V19H9V6H3V4H17V6H11ZM19.55 16.58C19.6529 16.4823 19.7279 16.359 19.7675 16.2227C19.807 16.0865 19.8096 15.9421 19.7749 15.8046C19.7403 15.667 19.6697 15.5411 19.5703 15.4398C19.471 15.3385 19.3465 15.2654 19.2096 15.2281C19.0727 15.1907 18.9284 15.1905 18.7914 15.2273C18.6544 15.2642 18.5296 15.3368 18.4299 15.4377C18.3302 15.5387 18.2592 15.6643 18.224 15.8018C18.1889 15.9393 18.191 16.0836 18.23 16.22L17.076 16.55C16.991 16.2522 16.9764 15.9388 17.0331 15.6344C17.0898 15.33 17.2164 15.043 17.4029 14.7958C17.5894 14.5486 17.8307 14.3481 18.1078 14.21C18.385 14.0719 18.6904 14 19 14C19.4004 14.0001 19.7916 14.1203 20.1229 14.3451C20.4542 14.57 20.7104 14.8891 20.8583 15.2612C21.0062 15.6333 21.039 16.0412 20.9525 16.4321C20.866 16.8231 20.6641 17.1791 20.373 17.454L18.744 19H21V20H17V19L19.55 16.58Z"/></g></g><defs><clipPath id="a"><rect width="24" height="24" fill="white"/></clipPath></defs></svg>

<svg width="24" height="24" fill="none" xmlns="http://www.w3.org/2000/svg"><g clip-path="url(#a)"><path d="M11 6v13H9V6H3V4h14v2h-6Zm8.55 10.58a.8.8 0 1 0-1.32-.36l-1.154.33a2 2 0 1 1 3.297.904L18.744 19H21v1h-4v-1l2.55-2.42Z" /></g><defs><clipPath id="a"><path fill="#fff" d="M0 0h24v24H0z"/></clipPath></defs></svg>
